src/base/static/base/assets/include/rs-plugin/demos/assets/svg/hardware/ic_keyboard_hide_24px.svg

<svg height="24" viewBox="0 0 24 24" width="24" xmlns="http://www.w3.org/2000/svg"><path d="m20 3h-16c-1.1 0-1.99.9-1.99 2l-.01 10c0 1.1.9 2 2 2h16c1.1 0 2-.9 2-2v-10c0-1.1-.9-2-2-2zm-9 3h2v2h-2zm0 3h2v2h-2zm-3-3h2v2h-2zm0 3h2v2h-2zm-1 2h-2v-2h2zm0-3h-2v-2h2zm9 7h-8v-2h8zm0-4h-2v-2h2zm0-3h-2v-2h2zm3 3h-2v-2h2zm0-3h-2v-2h2zm-7 15 4-4h-8z"/></svg>

<svg xmlns="http://www.w3.org/2000/svg" width="24" height="24" viewBox="0 0 24 24"><path d="M20 3H4c-1.1 0-1.99.9-1.99 2L2 15c0 1.1.9 2 2 2h16c1.1 0 2-.9 2-2V5c0-1.1-.9-2-2-2zm-9 3h2v2h-2V6zm0 3h2v2h-2V9zM8 6h2v2H8V6zm0 3h2v2H8V9zm-1 2H5V9h2v2zm0-3H5V6h2v2zm9 7H8v-2h8v2zm0-4h-2V9h2v2zm0-3h-2V6h2v2zm3 3h-2V9h2v2zm0-3h-2V6h2v2zm-7 15l4-4H8l4 4z"/></svg>
